X:208
T: Qigai diao
N: C1700
O: China, Taiwan
S: IV, 631]
R: Xiaodiao]
M: 2/4
L: 1/16
K: F
d2c2 | d2c4A2 | c3AG2G2 | c4A4
A2AAF4 | G8 | G3FC4 | G2D2F4
c2ccF2G2 | F2G2F2F2 | D2F2G4
c2d2c3c | F2A2GFD2 | F2D2C2C2 | F2D2C2C2 | F4

